X: 1
T: Lisheen, The
M: 2/4
L: 1/8
R: polka
K: Gmaj
dg B>A|GA Bd|fg/f/ ef|ed B>c|
dg B>A|GA Bd|fg/f/ ef|g2g2:|
|:a2f>g|af d2|fa f/g/f/e/|dB BA|
dg B>A|GA Bd|fg/f/ ef|g2g2:|
